Newaita/actions/16/go-first.svg

<svg height="16" viewBox="0 0 16 16" width="16" xmlns="http://www.w3.org/2000/svg"><g fill="#424242"><path d="m12.570312 7.402344h-5.957031c-.363281 0-.660156.296875-.660156.660156 0 .367188.296875.664062.660156.664062h5.957031c.363282 0 .660157-.296874.660157-.664062 0-.363281-.296875-.660156-.660157-.660156zm0 0"/><path d="m11.761719 12.273438-4.679688-4.675782c-.257812-.261718-.675781-.261718-.933593 0-.257813.257813-.257813.675782 0 .933594l4.675781 4.679688c.257812.257812.679687.257812.9375 0 .257812-.261719.257812-.679688 0-.9375zm0 0"/><path d="m10.824219 2.917969-4.675781 4.675781c-.257813.257812-.257813.679688 0 .9375.257812.257812.675781.257812.933593 0l4.679688-4.679688c.257812-.257812.257812-.675781 0-.933593-.257813-.257813-.679688-.257813-.9375 0zm0 0"/><path d="m3.96875 6.738281c-.730469 0-1.324219.59375-1.324219 1.324219s.59375 1.324219 1.324219 1.324219 1.324219-.59375 1.324219-1.324219-.59375-1.324219-1.324219-1.324219zm0 0"/></g></svg>

<svg xmlns="http://www.w3.org/2000/svg" xmlns:xlink="http://www.w3.org/1999/xlink" width="16px" height="16px" viewBox="0 0 16 16" version="1.1">
<g id="surface1">
     <defs>
  <style id="current-color-scheme" type="text/css">
   .ColorScheme-Text { color:#424242; } .ColorScheme-Highlight { color:#eeeeee; }
  </style>
 </defs>
<path style="fill:currentColor" class="ColorScheme-Text" d="M 12.570312 7.402344 L 6.613281 7.402344 C 6.25 7.402344 5.953125 7.699219 5.953125 8.0625 C 5.953125 8.429688 6.25 8.726562 6.613281 8.726562 L 12.570312 8.726562 C 12.933594 8.726562 13.230469 8.429688 13.230469 8.0625 C 13.230469 7.699219 12.933594 7.402344 12.570312 7.402344 Z M 12.570312 7.402344 "/>
     <defs>
  <style id="current-color-scheme" type="text/css">
   .ColorScheme-Text { color:#424242; } .ColorScheme-Highlight { color:#eeeeee; }
  </style>
 </defs>
<path style="fill:currentColor" class="ColorScheme-Text" d="M 11.761719 12.273438 L 7.082031 7.597656 C 6.824219 7.335938 6.40625 7.335938 6.148438 7.597656 C 5.890625 7.855469 5.890625 8.273438 6.148438 8.53125 L 10.824219 13.210938 C 11.082031 13.46875 11.503906 13.46875 11.761719 13.210938 C 12.019531 12.949219 12.019531 12.53125 11.761719 12.273438 Z M 11.761719 12.273438 "/>
     <defs>
  <style id="current-color-scheme" type="text/css">
   .ColorScheme-Text { color:#424242; } .ColorScheme-Highlight { color:#eeeeee; }
  </style>
 </defs>
<path style="fill:currentColor" class="ColorScheme-Text" d="M 10.824219 2.917969 L 6.148438 7.59375 C 5.890625 7.851562 5.890625 8.273438 6.148438 8.53125 C 6.40625 8.789062 6.824219 8.789062 7.082031 8.53125 L 11.761719 3.851562 C 12.019531 3.59375 12.019531 3.175781 11.761719 2.917969 C 11.503906 2.660156 11.082031 2.660156 10.824219 2.917969 Z M 10.824219 2.917969 "/>
     <defs>
  <style id="current-color-scheme" type="text/css">
   .ColorScheme-Text { color:#424242; } .ColorScheme-Highlight { color:#eeeeee; }
  </style>
 </defs>
<path style="fill:currentColor" class="ColorScheme-Text" d="M 3.96875 6.738281 C 3.238281 6.738281 2.644531 7.332031 2.644531 8.0625 C 2.644531 8.792969 3.238281 9.386719 3.96875 9.386719 C 4.699219 9.386719 5.292969 8.792969 5.292969 8.0625 C 5.292969 7.332031 4.699219 6.738281 3.96875 6.738281 Z M 3.96875 6.738281 "/>
</g>
</svg>
